images/basic-sector-implied/basic-sector-implied-exit-5-2-1.svg

<svg xmlns="http://www.w3.org/2000/svg" focusable="false" aria-hidden="true" width="192" height="176" style="pointer-events: none; position: absolute; left: 0px; top: 0px; transform-origin: left top; z-index: 20;"><defs/><g><g><g><g><rect x="0" y="0" width="182" height="166" rx="0" ry="0" style="fill: #333; stroke: none;stroke-miterlimit: 10;"/></g><g transform="translate(10.00000000000000000000,10.00000000000000000000)"><g transform="translate(5.00000000000000000000,5.00000000000000000000)"><g><g transform="translate(0.00000000000000000000,28.57804803801085213877)"><g><g transform="translate(24.35867761909229756156,0.00000000000000000000)"><g transform="scale(30.00000000000000000000)"><g><path d="M 0.30901699437494745126 0.95105651629515353118 L 0.00000000000000000000 0.00000000000000000000 L 1.00000000000000000000 0.00000000000000000000 L 0.30901699437494745126 0.95105651629515353118 Z " style="fill: #000; stroke: none;stroke-miterlimit: 10;"/></g><g><path d="M -0.80901699437494734024 0.58778525229247324813 L 0.00000000000000000000 0.00000000000000000000 L 0.30901699437494745126 0.95105651629515353118 L -0.80901699437494734024 0.58778525229247324813 Z " style="fill: #000; stroke: none;stroke-miterlimit: 10;"/></g><g><path d="M 0.30901699437494722922 -0.95105651629515364220 L 0.00000000000000000000 0.00000000000000000000 L -0.80901699437494745126 -0.58778525229247302608 L 0.30901699437494722922 -0.95105651629515364220 Z " style="fill: #000; stroke: none;stroke-miterlimit: 10;"/></g><g><path d="M 0.07725424859373687669 0.23776412907378841055 L 0.07725424859373686282 0.23776412907378838280 A 0.25000000000000000000 0.25000000000000000000 0 0 0 0.25000000000000000000 -0.00000000000000006123 " style="fill: none; stroke: rgb(224,124,31);stroke-width: 0.02;stroke-miterlimit: 10;stroke-dasharray: 0.03,0.03;stroke-dashoffset: 0;"/></g><g><path d="M -0.17798373876248840819 0.12931275550434412347 A 0.22000000000000000111 0.22000000000000000111 0 0 0 0.06798373876248850478 0.20923243358493379129 M -0.22652475842498528968 0.16457987064189252835 A 0.28000000000000002665 0.28000000000000002665 0 0 0 0.08652475842498537351 0.26629582456264300205 " style="fill: none; stroke: rgb(8,164,217);stroke-width: 0.02;stroke-miterlimit: 10;"/></g><g><path d="M 0.06798373876248839376 -0.20923243358493379129 L 0.06798373876248840764 -0.20923243358493379129 A 0.22000000000000000111 0.22000000000000000111 0 0 0 -0.17798373876248843595 -0.12931275550434406796 M 0.08652475842498523473 -0.26629582456264305756 L 0.08652475842498524861 -0.26629582456264305756 A 0.28000000000000002665 0.28000000000000002665 0 0 0 -0.22652475842498531744 -0.16457987064189247284 " style="fill: none; stroke: rgb(8,164,217);stroke-width: 0.02;stroke-miterlimit: 10;"/></g><g><line x1="0" y1="0" x2="1" y2="0" style="fill: none; stroke: rgba(255,255,255,0.2);stroke-width: 0.01;stroke-miterlimit: 10;"/></g><g><line x1="0" y1="0" x2="0.30901699437494745" y2="0.9510565162951535" style="fill: none; stroke: rgba(255,255,255,0.2);stroke-width: 0.01;stroke-miterlimit: 10;"/></g><g><line x1="0" y1="0" x2="-0.8090169943749473" y2="0.5877852522924732" style="fill: none; stroke: rgba(255,255,255,0.2);stroke-width: 0.01;stroke-miterlimit: 10;"/></g><g><line x1="0" y1="0" x2="-0.8090169943749475" y2="-0.587785252292473" style="fill: none; stroke: rgba(255,255,255,0.2);stroke-width: 0.01;stroke-miterlimit: 10;"/></g><g><line x1="0" y1="0" x2="0.30901699437494723" y2="-0.9510565162951536" style="fill: none; stroke: rgba(255,255,255,0.2);stroke-width: 0.01;stroke-miterlimit: 10;"/></g><g><circle r="0.06" style="fill: #222; stroke: rgba(255,255,255,0.2);stroke-width: 0.02;stroke-miterlimit: 10;"/></g><g><circle r="0.12" style="fill: none; stroke: #f00;stroke-width: 0.03;stroke-miterlimit: 10;"/></g></g></g><g transform="translate(64.85867761909230466699,0.00000000000000000000)"><path d="M 0.00000000000000003062 0.50000000000000000000 L 13.00000000000000000000 0.50000000000000000000 L 13.00000000000000000000 3.50000000000000000000 L 20.00000000000000000000 0.00000000000000000000 L 13.00000000000000000000 -3.50000000000000000000 L 13.00000000000000000000 -0.50000000000000000000 L -0.00000000000000003062 -0.50000000000000000000 L 0.00000000000000003062 0.50000000000000000000 Z " style="fill: #ccc; stroke: #ccc;stroke-miterlimit: 10;"/></g><g transform="translate(120.33538922693449535473,0.00000000000000000000)"><g transform="scale(30.00000000000000000000)"><g><path d="M 0.30901699437494745126 0.95105651629515353118 L 0.00000000000000000000 0.00000000000000000000 L 1.00000000000000000000 0.00000000000000000000 L 0.30901699437494745126 0.95105651629515353118 Z " style="fill: #000; stroke: none;stroke-miterlimit: 10;"/></g><g><path d="M -0.80901699437494734024 0.58778525229247324813 L 0.00000000000000000000 0.00000000000000000000 L 0.30901699437494745126 0.95105651629515353118 L -0.80901699437494734024 0.58778525229247324813 Z " style="fill: #000; stroke: none;stroke-miterlimit: 10;"/></g><g><path d="M 0.30901699437494722922 -0.95105651629515364220 L 0.00000000000000000000 0.00000000000000000000 L -0.80901699437494745126 -0.58778525229247302608 L 0.30901699437494722922 -0.95105651629515364220 Z " style="fill: #000; stroke: none;stroke-miterlimit: 10;"/></g><g><path d="M -0.17798373876248840819 0.12931275550434412347 A 0.22000000000000000111 0.22000000000000000111 0 0 0 0.06798373876248850478 0.20923243358493379129 M -0.22652475842498528968 0.16457987064189252835 A 0.28000000000000002665 0.28000000000000002665 0 0 0 0.08652475842498537351 0.26629582456264300205 " style="fill: none; stroke: rgb(8,164,217);stroke-width: 0.02;stroke-miterlimit: 10;"/></g><g><path d="M 0.06798373876248839376 -0.20923243358493379129 L 0.06798373876248840764 -0.20923243358493379129 A 0.22000000000000000111 0.22000000000000000111 0 0 0 -0.17798373876248843595 -0.12931275550434406796 M 0.08652475842498523473 -0.26629582456264305756 L 0.08652475842498524861 -0.26629582456264305756 A 0.28000000000000002665 0.28000000000000002665 0 0 0 -0.22652475842498531744 -0.16457987064189247284 " style="fill: none; stroke: rgb(8,164,217);stroke-width: 0.02;stroke-miterlimit: 10;"/></g><g><line x1="0" y1="0" x2="1" y2="0" style="fill: none; stroke: rgba(255,255,255,0.2);stroke-width: 0.01;stroke-miterlimit: 10;"/></g><g><line x1="0" y1="0" x2="0.30901699437494745" y2="0.9510565162951535" style="fill: none; stroke: rgba(255,255,255,0.2);stroke-width: 0.01;stroke-miterlimit: 10;"/></g><g><line x1="0" y1="0" x2="-0.8090169943749473" y2="0.5877852522924732" style="fill: none; stroke: rgba(255,255,255,0.2);stroke-width: 0.01;stroke-miterlimit: 10;"/></g><g><line x1="0" y1="0" x2="-0.8090169943749475" y2="-0.587785252292473" style="fill: none; stroke: rgba(255,255,255,0.2);stroke-width: 0.01;stroke-miterlimit: 10;"/></g><g><line x1="0" y1="0" x2="0.30901699437494723" y2="-0.9510565162951536" style="fill: none; stroke: rgba(255,255,255,0.2);stroke-width: 0.01;stroke-miterlimit: 10;"/></g><g><circle r="0.06" style="fill: #222; stroke: rgba(255,255,255,0.2);stroke-width: 0.02;stroke-miterlimit: 10;"/></g><g><circle r="0.12" style="fill: none; stroke: #f00;stroke-width: 0.03;stroke-miterlimit: 10;"/></g><g><line x1="0" y1="0" x2="1" y2="0" style="fill: none; stroke: #f00;stroke-width: 0.05;stroke-linecap: round;stroke-miterlimit: 10;"/></g></g></g></g></g><g transform="translate(0.37500000000000000000,105.73414411403254575816)"><g><g transform="translate(24.35867761909229756156,0.00000000000000000000)"><g transform="scale(30.00000000000000000000)"><g><path d="M 0.30901699437494745126 0.95105651629515353118 L 0.00000000000000000000 0.00000000000000000000 L 1.00000000000000000000 0.00000000000000000000 L 0.30901699437494745126 0.95105651629515353118 Z " style="fill: #000; stroke: none;stroke-miterlimit: 10;"/></g><g><path d="M -0.80901699437494734024 0.58778525229247324813 L 0.00000000000000000000 0.00000000000000000000 L 0.30901699437494745126 0.95105651629515353118 L -0.80901699437494734024 0.58778525229247324813 Z " style="fill: #000; stroke: none;stroke-miterlimit: 10;"/></g><g><path d="M 0.30901699437494722922 -0.95105651629515364220 L 0.00000000000000000000 0.00000000000000000000 L -0.80901699437494745126 -0.58778525229247302608 L 0.30901699437494722922 -0.95105651629515364220 Z " style="fill: #000; stroke: none;stroke-miterlimit: 10;"/></g><g><path d="M 0.07725424859373687669 0.23776412907378841055 L 0.07725424859373686282 0.23776412907378838280 A 0.25000000000000000000 0.25000000000000000000 0 0 0 0.25000000000000000000 -0.00000000000000006123 " style="fill: none; stroke: rgb(224,124,31);stroke-width: 0.02;stroke-miterlimit: 10;stroke-dasharray: 0.03,0.03;stroke-dashoffset: 0;"/></g><g><path d="M -0.20225424859373683506 0.14694631307311831203 A 0.25000000000000000000 0.25000000000000000000 0 0 0 0.07725424859373693220 0.23776412907378838280 " style="fill: none; stroke: rgb(224,124,31);stroke-width: 0.02;stroke-miterlimit: 10;stroke-dasharray: 0.03,0.03;stroke-dashoffset: 0;"/></g><g><path d="M 0.06798373876248839376 -0.20923243358493379129 L 0.06798373876248840764 -0.20923243358493379129 A 0.22000000000000000111 0.22000000000000000111 0 0 0 -0.17798373876248843595 -0.12931275550434406796 M 0.08652475842498523473 -0.26629582456264305756 L 0.08652475842498524861 -0.26629582456264305756 A 0.28000000000000002665 0.28000000000000002665 0 0 0 -0.22652475842498531744 -0.16457987064189247284 " style="fill: none; stroke: rgb(8,164,217);stroke-width: 0.02;stroke-miterlimit: 10;"/></g><g><line x1="0" y1="0" x2="1" y2="0" style="fill: none; stroke: rgba(255,255,255,0.2);stroke-width: 0.01;stroke-miterlimit: 10;"/></g><g><line x1="0" y1="0" x2="0.30901699437494745" y2="0.9510565162951535" style="fill: none; stroke: rgba(255,255,255,0.2);stroke-width: 0.01;stroke-miterlimit: 10;"/></g><g><line x1="0" y1="0" x2="-0.8090169943749473" y2="0.5877852522924732" style="fill: none; stroke: rgba(255,255,255,0.2);stroke-width: 0.01;stroke-miterlimit: 10;"/></g><g><line x1="0" y1="0" x2="-0.8090169943749475" y2="-0.587785252292473" style="fill: none; stroke: rgba(255,255,255,0.2);stroke-width: 0.01;stroke-miterlimit: 10;"/></g><g><line x1="0" y1="0" x2="0.30901699437494723" y2="-0.9510565162951536" style="fill: none; stroke: rgba(255,255,255,0.2);stroke-width: 0.01;stroke-miterlimit: 10;"/></g><g><circle r="0.06" style="fill: #222; stroke: rgba(255,255,255,0.2);stroke-width: 0.02;stroke-miterlimit: 10;"/></g><g><circle r="0.12" style="fill: none; stroke: #f00;stroke-width: 0.03;stroke-miterlimit: 10;"/></g></g></g><g transform="translate(64.85867761909230466699,0.35182372542187945186)"><path d="M 0.00000000000000003062 0.50000000000000000000 L 13.00000000000000000000 0.50000000000000000000 L 13.00000000000000000000 3.50000000000000000000 L 20.00000000000000000000 0.00000000000000000000 L 13.00000000000000000000 -3.50000000000000000000 L 13.00000000000000000000 -0.50000000000000000000 L -0.00000000000000003062 -0.50000000000000000000 L 0.00000000000000003062 0.50000000000000000000 Z " style="fill: #ccc; stroke: #ccc;stroke-miterlimit: 10;"/></g><g transform="translate(120.33538922693449535473,0.00000000000000000000)"><g transform="scale(30.00000000000000000000)"><g><path d="M 0.30901699437494745126 0.95105651629515353118 L 0.00000000000000000000 0.00000000000000000000 L 1.00000000000000000000 0.00000000000000000000 L 0.30901699437494745126 0.95105651629515353118 Z " style="fill: #000; stroke: none;stroke-miterlimit: 10;"/></g><g><path d="M -0.80901699437494734024 0.58778525229247324813 L 0.00000000000000000000 0.00000000000000000000 L 0.30901699437494745126 0.95105651629515353118 L -0.80901699437494734024 0.58778525229247324813 Z " style="fill: #000; stroke: none;stroke-miterlimit: 10;"/></g><g><path d="M 0.30901699437494722922 -0.95105651629515364220 L 0.00000000000000000000 0.00000000000000000000 L -0.80901699437494745126 -0.58778525229247302608 L 0.30901699437494722922 -0.95105651629515364220 Z " style="fill: #000; stroke: none;stroke-miterlimit: 10;"/></g><g><path d="M 0.06798373876248839376 -0.20923243358493379129 L 0.06798373876248840764 -0.20923243358493379129 A 0.22000000000000000111 0.22000000000000000111 0 0 0 -0.17798373876248843595 -0.12931275550434406796 M 0.08652475842498523473 -0.26629582456264305756 L 0.08652475842498524861 -0.26629582456264305756 A 0.28000000000000002665 0.28000000000000002665 0 0 0 -0.22652475842498531744 -0.16457987064189247284 " style="fill: none; stroke: rgb(8,164,217);stroke-width: 0.02;stroke-miterlimit: 10;"/></g><g><line x1="0" y1="0" x2="1" y2="0" style="fill: none; stroke: rgba(255,255,255,0.2);stroke-width: 0.01;stroke-miterlimit: 10;"/></g><g><line x1="0" y1="0" x2="0.30901699437494745" y2="0.9510565162951535" style="fill: none; stroke: rgba(255,255,255,0.2);stroke-width: 0.01;stroke-miterlimit: 10;"/></g><g><line x1="0" y1="0" x2="-0.8090169943749473" y2="0.5877852522924732" style="fill: none; stroke: rgba(255,255,255,0.2);stroke-width: 0.01;stroke-miterlimit: 10;"/></g><g><line x1="0" y1="0" x2="-0.8090169943749475" y2="-0.587785252292473" style="fill: none; stroke: rgba(255,255,255,0.2);stroke-width: 0.01;stroke-miterlimit: 10;"/></g><g><line x1="0" y1="0" x2="0.30901699437494723" y2="-0.9510565162951536" style="fill: none; stroke: rgba(255,255,255,0.2);stroke-width: 0.01;stroke-miterlimit: 10;"/></g><g><circle r="0.06" style="fill: #222; stroke: rgba(255,255,255,0.2);stroke-width: 0.02;stroke-miterlimit: 10;"/></g><g><circle r="0.12" style="fill: none; stroke: #f00;stroke-width: 0.03;stroke-miterlimit: 10;"/></g><g><line x1="0" y1="0" x2="0.30901699437494745" y2="0.9510565162951535" style="fill: none; stroke: #f00;stroke-width: 0.05;stroke-linecap: round;stroke-miterlimit: 10;"/></g></g></g></g></g></g></g></g></g></g></g></svg>

<svg xmlns="http://www.w3.org/2000/svg" width="192" height="176" aria-hidden="true" style="pointer-events:none;position:absolute;left:0;top:0;transform-origin:left top;z-index:20"><rect width="182" height="166" rx="0" ry="0" style="fill:#333"/><path d="M.309.951 0 0h1z" style="fill:#000" transform="matrix(30 0 0 30 39.359 43.578)"/><path d="M-.809.588 0 0l.309.951zM.309-.951 0 0l-.809-.588z" style="fill:#000" transform="matrix(30 0 0 30 39.359 43.578)"/><path d="M.077.238A.25.25 0 0 0 .25 0" style="fill:none;stroke:#e07c1f;stroke-width:.02;stroke-dasharray:.03,.03;stroke-dashoffset:0" transform="matrix(30 0 0 30 39.359 43.578)"/><path d="M-.178.13a.22.22 0 0 0 .246.08M-.227.164a.28.28 0 0 0 .314.101M.068-.21a.22.22 0 0 0-.246.08m.265-.136a.28.28 0 0 0-.314.101" style="fill:none;stroke:#08a4d9;stroke-width:.02" transform="matrix(30 0 0 30 39.359 43.578)"/><path d="M0 0h1M0 0l.309.951M0 0l-.809.588M0 0l-.809-.588M0 0l.309-.951" style="fill:none;stroke:rgba(255,255,255,.2);stroke-width:.01" transform="matrix(30 0 0 30 39.359 43.578)"/><circle r=".06" style="fill:#222;stroke:rgba(255,255,255,.2);stroke-width:.02" transform="matrix(30 0 0 30 39.359 43.578)"/><circle r=".12" style="fill:none;stroke:red;stroke-width:.03" transform="matrix(30 0 0 30 39.359 43.578)"/><path d="M0 .5h13v3L20 0l-7-3.5v3H0z" style="fill:#ccc;stroke:#ccc" transform="translate(79.859 43.578)"/><path d="M.309.951 0 0h1z" style="fill:#000" transform="matrix(30 0 0 30 135.335 43.578)"/><path d="M-.809.588 0 0l.309.951zM.309-.951 0 0l-.809-.588z" style="fill:#000" transform="matrix(30 0 0 30 135.335 43.578)"/><path d="M-.178.13a.22.22 0 0 0 .246.08M-.227.164a.28.28 0 0 0 .314.101M.068-.21a.22.22 0 0 0-.246.08m.265-.136a.28.28 0 0 0-.314.101" style="fill:none;stroke:#08a4d9;stroke-width:.02" transform="matrix(30 0 0 30 135.335 43.578)"/><path d="M0 0h1M0 0l.309.951M0 0l-.809.588M0 0l-.809-.588M0 0l.309-.951" style="fill:none;stroke:rgba(255,255,255,.2);stroke-width:.01" transform="matrix(30 0 0 30 135.335 43.578)"/><circle r=".06" style="fill:#222;stroke:rgba(255,255,255,.2);stroke-width:.02" transform="matrix(30 0 0 30 135.335 43.578)"/><circle r=".12" style="fill:none;stroke:red;stroke-width:.03" transform="matrix(30 0 0 30 135.335 43.578)"/><path d="M0 0h1" style="fill:none;stroke:red;stroke-width:.05;stroke-linecap:round" transform="matrix(30 0 0 30 135.335 43.578)"/><path d="M.309.951 0 0h1z" style="fill:#000" transform="matrix(30 0 0 30 39.734 120.734)"/><path d="M-.809.588 0 0l.309.951zM.309-.951 0 0l-.809-.588z" style="fill:#000" transform="matrix(30 0 0 30 39.734 120.734)"/><path d="M.077.238A.25.25 0 0 0 .25 0" style="fill:none;stroke:#e07c1f;stroke-width:.02;stroke-dasharray:.03,.03;stroke-dashoffset:0" transform="matrix(30 0 0 30 39.734 120.734)"/><path d="M-.202.147a.25.25 0 0 0 .28.09" style="fill:none;stroke:#e07c1f;stroke-width:.02;stroke-dasharray:.03,.03;stroke-dashoffset:0" transform="matrix(30 0 0 30 39.734 120.734)"/><path d="M.068-.21a.22.22 0 0 0-.246.08m.265-.136a.28.28 0 0 0-.314.101" style="fill:none;stroke:#08a4d9;stroke-width:.02" transform="matrix(30 0 0 30 39.734 120.734)"/><path d="M0 0h1M0 0l.309.951M0 0l-.809.588M0 0l-.809-.588M0 0l.309-.951" style="fill:none;stroke:rgba(255,255,255,.2);stroke-width:.01" transform="matrix(30 0 0 30 39.734 120.734)"/><circle r=".06" style="fill:#222;stroke:rgba(255,255,255,.2);stroke-width:.02" transform="matrix(30 0 0 30 39.734 120.734)"/><circle r=".12" style="fill:none;stroke:red;stroke-width:.03" transform="matrix(30 0 0 30 39.734 120.734)"/><path d="M0 .5h13v3L20 0l-7-3.5v3H0z" style="fill:#ccc;stroke:#ccc" transform="translate(80.234 121.086)"/><path d="M.309.951 0 0h1z" style="fill:#000" transform="matrix(30 0 0 30 135.71 120.734)"/><path d="M-.809.588 0 0l.309.951zM.309-.951 0 0l-.809-.588z" style="fill:#000" transform="matrix(30 0 0 30 135.71 120.734)"/><path d="M.068-.21a.22.22 0 0 0-.246.08m.265-.136a.28.28 0 0 0-.314.101" style="fill:none;stroke:#08a4d9;stroke-width:.02" transform="matrix(30 0 0 30 135.71 120.734)"/><path d="M0 0h1M0 0l.309.951M0 0l-.809.588M0 0l-.809-.588M0 0l.309-.951" style="fill:none;stroke:rgba(255,255,255,.2);stroke-width:.01" transform="matrix(30 0 0 30 135.71 120.734)"/><circle r=".06" style="fill:#222;stroke:rgba(255,255,255,.2);stroke-width:.02" transform="matrix(30 0 0 30 135.71 120.734)"/><circle r=".12" style="fill:none;stroke:red;stroke-width:.03" transform="matrix(30 0 0 30 135.71 120.734)"/><path d="m0 0 .309.951" style="fill:none;stroke:red;stroke-width:.05;stroke-linecap:round" transform="matrix(30 0 0 30 135.71 120.734)"/></svg>
